X:1
T:The Young Sailor Cut Down in his Prime
M:3/4
L:1/4
K:G
 D| G3/2 F/2 G| E F G| A3/2 B/2 A| F D2| B3/2 B/2 B| d- B G| E F G|\
 A3/2 z/2 d-| d3/2 c/2 B| c d D| G B G| E D z/2 D/2| B3/2 B/2 B| c A F|\
 D3/2 E/2 F| G2||
